src/components/Icon/assets/channel-btn-smile-filled.svg

<svg width="24" height="24" viewBox="0 0 24 24" fill="none" xmlns="http://www.w3.org/2000/svg">
<g id="channel-btn-smile-filled">
<path id="Combined Shape" fill-rule="evenodd" clip-rule="evenodd" d="M12 1C5.95869 1 1.05381 5.87201 1 11.9004V12.0996C1.05381 18.1285 5.95869 23 12 23C18.0752 23 23 18.0747 23 12C23 5.92531 18.0752 1 12 1ZM17.8977 14.952C17.7008 15.3436 17.665 15.7962 17.8042 16.212L18.2524 17.5568C18.3949 17.9863 17.9862 18.3955 17.5561 18.252L16.2125 17.8043C15.7961 17.6651 15.3435 17.7009 14.9519 17.8983C13.8343 18.461 12.5374 18.7184 11.1657 18.5479C8.20506 18.1794 5.81202 15.7913 5.45067 12.8295C4.92708 8.53406 8.53506 4.92663 12.83 5.45078C15.7923 5.81213 18.1804 8.20572 18.5483 11.1669C18.7183 12.5386 18.4609 13.8349 17.8977 14.952ZM9.8791 11.0639C9.23918 11.0639 8.97223 10.6013 8.97223 9.46975C8.97223 8.33759 9.23918 7.875 9.8791 7.875C10.5196 7.875 10.7872 8.33759 10.7872 9.46975C10.7872 10.6013 10.5196 11.0639 9.8791 11.0639ZM14.1216 11.065C13.4808 11.065 13.2138 10.6022 13.2138 9.47031C13.2138 8.33775 13.4808 7.875 14.1216 7.875C14.7618 7.875 15.0288 8.33775 15.0288 9.47031C15.0288 10.6022 14.7618 11.065 14.1216 11.065ZM10.4295 11.3812H13.57C13.7495 11.3812 13.8835 11.5465 13.8515 11.7226C13.691 12.5997 12.9227 13.2639 11.9994 13.2639C11.0767 13.2639 10.3091 12.5997 10.1487 11.7226C10.116 11.5465 10.25 11.3812 10.4295 11.3812Z" fill="#242428"/>
</g>
</svg>

<svg xmlns="http://www.w3.org/2000/svg" width="24" height="24" fill="none" viewBox="0 0 24 24">
    <path fill="#65676A" fill-rule="evenodd" d="M12 1C5.959 1 1.054 5.872 1 11.9v.2C1.054 18.128 5.959 23 12 23c6.075 0 11-4.925 11-11S18.075 1 12 1zm5.898 13.952c-.197.392-.233.844-.094 1.26l.448 1.345c.143.43-.266.838-.696.695l-1.344-.448c-.416-.139-.868-.103-1.26.094-1.118.563-2.415.82-3.786.65-2.96-.369-5.354-2.757-5.715-5.718-.524-4.296 3.084-7.903 7.379-7.38 2.962.362 5.35 2.756 5.718 5.717.17 1.372-.087 2.668-.65 3.785zm-8.019-3.888c-.64 0-.907-.463-.907-1.594 0-1.132.267-1.595.907-1.595s.908.463.908 1.595c0 1.131-.267 1.594-.908 1.594zm4.243.001c-.641 0-.908-.463-.908-1.595s.267-1.595.908-1.595c.64 0 .907.463.907 1.595s-.267 1.595-.907 1.595zm-3.692.316h3.14c.18 0 .313.165.281.342-.16.877-.928 1.54-1.852 1.54-.922 0-1.69-.663-1.85-1.54-.033-.177.101-.342.28-.342z" clip-rule="evenodd"/>
</svg>
